X:1
T:Mérida, LMD
T:Mérida, LMD
T:Robert Lowry, 1875
T:Public Domain Courtesy of the Cyber Hymnal™
C:Robert Lowry, 1875
Z:Public Domain
Z:Courtesy of the Cyber Hymnal™
%%score ( 1 2 ) ( 3 4 )
L:1/8
Q:1/4=108
M:4/4
K:F
V:1 treble 
V:2 treble 
V:3 bass 
V:4 bass 
V:1
 [CF]2 [FA]>[FA] [Fc]2 [Fc]2 | [Fc]2 (dc) [FA]4 | [CF]2 [CF]>[CF] [FA]2 [FA]2 | [EG]2 [EA]2 F4 | %4
 [CF]2 [FA]>[FA] [Fc]2 [Fc]2 | [Fd]2 (cA) [Ec]4 | [Ec]2 [EG]>[Ec] [Ge]2 [Gc]2 | %7
 [Gc]2 [F=B]2 [Ec]4 | [GB]2 [GB]>[FA] [EG]2 [FA]2 | [GB]2 [Ec]2 [FA]4 | %10
 [GB]2 [GB]>[FA] [EG]2 [FA]2 | [GB]2 [Ec]2 [FA]4 | [Ac]2 [Ac]>[GB] [FA]4 | [GB]2 [GB]>[FA] [EG]4 | %14
 [FA]2 [FA]>[FA] !fermata![FB]2 [DG]2 | [CF]2 [EG]2 F4 |] %16
V:2
 x8 | x2 F2 x4 | x8 | x4 F4 | x8 | x2 F2 x4 | x8 | x8 | x8 | x8 | x8 | x8 | x8 | x8 | x8 | x4 F4 |] %16
V:3
 [F,A,]2 [F,C]>[F,C] [F,A,]2 [F,A,]2 | [F,A,]2 (B,A,) [F,C]4 | %2
 [F,A,]2 [F,A,]>[F,A,] [F,C]2 [F,C]2 | [C,B,]2 [C,C]2 [F,A,]4 | %4
 [F,A,]2 [F,C]>[F,C] [F,A,]2 [F,A,]2 | [F,B,]2 (A,C) [C,C]4 | [C,G,]2 [C,C]>[C,C] [C,C]2 [E,C]2 | %7
 [G,E]2 [G,D]2 [C,C]4 | [C,C]2 [C,C]>[C,C] [C,C]2 [C,C]2 | [C,C]2 [C,C]2 [F,C]4 | %10
 [C,C]2 [C,C]>[C,C] [C,C]2 [C,C]2 | [C,C]2 [C,C]2 [F,C]4 | [F,F]2 [F,F]>[F,C] [F,C]4 | %13
 [C,C]2 [C,C]>[C,C] [C,C]4 | [F,C]2 [F,_E]>[F,E] !fermata![B,,D]2 [B,,B,]2 | %15
 [C,A,]2 [C,B,]2 [F,A,]4 |] %16
V:4
 x8 | x2 F,2 x4 | x8 | x8 | x8 | x2 F,2 x4 | x8 | x8 | x8 | x8 | x8 | x8 | x8 | x8 | x8 | x8 |] %16

